!!!OTL: WO SOLCH EIN FEUER NOCH GEDEIHT
!!!ARE: Europa, Mitteleuropa, Deutschland
!!!SCT: F0426
!!!YEM: Copyright 1995, estate of Helmut Schaffrath.
**kern
*ICvox
*Ivox
*M4/4
*k[]
*C:
{8G
8A
8B
=1
4c
4c
4d
4d
=2
2e
4r}
{4e
=3
4f
4e
4d
4c
=4
8.B
16c
4d
4r}
{4g
=5
8f
8e
8d
8c
8B
8A
8G}
{8G
=6
4c
4c
4.d
8c
=7
2.B
4A
=8
4G
4.r}
{8G
8A
8B
=9
4c
4c
4.d
8c
=10
8B
8A
8G
8F#
4G
8r}
{8G
=11
4c
4G
4E
4C
=12
2G
8C}
{8G
8A
8B
=13
4c
4c
4.d
8c
=14
8B
8A
8G
8F#
4G
8r}
{8G
=15
4c
4G
4E
4C
=16
2G
8C}
==
!!!AGN: Vaterlands -, Heimat - Lied, nationalistisch, Trink - Lied
!!!ONB: ESAC (Essen Associative Code) Database: FINK
!!!AMT: simple quadruple
!!!AIN: vox
!!!EED: Helmut Schaffrath
!!!EEV: 1.0
*-
